X: 134
T: the Miser
B: 204 Favourite Country Dances
N: Published by Straight & Skillern, London ca.1775
F: http://imslp.org/wiki/204_Favourite_Country_Dances_(Various) p.67 #134
Z: 2014 John Chambers <jc:trillian.mit.edu>
M: 6/8
L: 1/8
K: A
% - - - - - - - - - - - - - - - - - - - - - - - - -
E |\
AAA ABc | BBB Bcd | cec dBG | AEC A,2E |\
AAA ABc | BcB Bcd | cec dBG | A3  A,3 :|
|:\
cee efg | fdd d3  | dff fga | gee e3 |\
cAA ABc | dBB Bcd | cec dBG | A3 A,3 :|
% - - - - - - - - - - - - - - - - - - - - - - - - -
%%begintext align
%% Hey Contray Sides .| then on your own Sides
%% :| Cross over one Cu. Lead up and Cast off .|:
%% hands round four at Bottom Right and Left
%% at top :|:
%%endtext

%%sep 1 1 500
%%sep 1 1 500
